X: 287
%
T: Lady Binning
C:
O:Scotland
B:Keith Norman MacDonald : "The Skye collection of the best reels & strathspeys extant" : 1887
Z:Ralph Palmer
R:Strathspey
M:C
L:1/8
K:A
(A/2B/2c) TB>A (ce) {/d}c2 | {/c}d>cTB>A G<B E2 | (A/2B/2c) B>A c<e {/d}c2 | [1 A/2G/2F/2E/2 F>G A2 (A>B) :| [2 (a/2g/2).f.e (f>g) {/g}a2 ||
e/2f/2g | {/g}a>ef>e {/g}a>A (d/2c/2).B.A | GBEB G>B E>g | {/g}a>eTf>e a>A (dc).B.A | (G/2A/2B) (E>G) A2 (A>g) |
a>eTf>e {/g}a>A{/d}c>A | G<BE<B G>BE>B | A<cB<d c<ed<f | (a/2g/2).f.e (f>g) {/g}a2 a z |]


